assets/icons/snapcraft/bag-filled.svg

<?xml version="1.0" encoding="UTF-8" standalone="no"?>
<svg
   viewBox="0 0 24 24"
   width="24"
   height="24"
   fill="#808080"
   version="1.1"
   id="svg10"
   sodipodi:docname="bag-filled.svg"
   inkscape:version="1.2 (1:1.2.1+202207142221+cd75a1ee6d)"
   xmlns:inkscape="http://www.inkscape.org/namespaces/inkscape"
   xmlns:sodipodi="http://sodipodi.sourceforge.net/DTD/sodipodi-0.dtd"
   xmlns="http://www.w3.org/2000/svg"
   xmlns:svg="http://www.w3.org/2000/svg">
  <defs
     id="defs14" />
  <sodipodi:namedview
     id="namedview12"
     pagecolor="#ffffff"
     bordercolor="#666666"
     borderopacity="1.0"
     inkscape:pageshadow="2"
     inkscape:pageopacity="0.0"
     inkscape:pagecheckerboard="0"
     showgrid="true"
     inkscape:zoom="24.09375"
     inkscape:cx="6.5577173"
     inkscape:cy="12.61738"
     inkscape:window-width="1920"
     inkscape:window-height="1043"
     inkscape:window-x="0"
     inkscape:window-y="0"
     inkscape:window-maximized="1"
     inkscape:current-layer="svg10"
     inkscape:showpageshadow="2"
     inkscape:deskcolor="#d1d1d1">
    <inkscape:grid
       type="xygrid"
       id="grid16" />
    <inkscape:grid
       type="xygrid"
       id="grid656"
       dotted="true"
       spacingx="0.5"
       spacingy="0.5"
       empspacing="10" />
  </sodipodi:namedview>
  <path
     id="path712"
     style="color:#000000;fill:#808080;fill-rule:evenodd;stroke-linecap:round;stroke-linejoin:round"
     d="M 12 2 C 9.748375 2 7.8978106 3.7481435 7.5566406 6 L 5 6 C 3.3466554 6 2 7.3466554 2 9 L 2 19 C 2 20.653344 3.3466554 22 5 22 L 19 22 C 20.653344 22 22 20.653344 22 19 L 22 9 C 22 7.3466554 20.653344 6 19 6 L 16.443359 6 C 16.102191 3.7481435 14.251626 2 12 2 z M 12 3 C 13.6858 3 15.105867 4.2744636 15.429688 6 L 8.5703125 6 C 8.8941316 4.2744636 10.3142 3 12 3 z M 6 8 L 12 10.25 L 12 14 L 6 8 z M 12.75 10.25 L 17.25 10.25 L 18 12.21875 L 12.75 10.25 z M 12.75 10.958984 L 15.505859 11.994141 L 12.75 14.75 L 12.75 10.958984 z M 10.650391 13.699219 L 12.224609 15.275391 L 7.5 20 L 10.650391 13.699219 z " />
</svg>

<svg width="24" height="24" fill="gray" xmlns="http://www.w3.org/2000/svg"><path style="color:#000;fill:gray;stroke-linecap:round;stroke-linejoin:round" d="M12 2C9.748 2 7.898 3.748 7.557 6H5C3.347 6 2 7.347 2 9v10c0 1.653 1.347 3 3 3h14c1.653 0 3-1.347 3-3V9c0-1.653-1.347-3-3-3h-2.557c-.34-2.252-2.191-4-4.443-4zm0 1c1.686 0 3.106 1.274 3.43 3H8.57c.324-1.726 1.744-3 3.43-3zM6 8l6 2.25V14L6 8zm6.75 2.25h4.5l.75 1.969-5.25-1.969zm0 .709 2.756 1.035-2.756 2.756v-3.791zm-2.1 2.74 1.575 1.576L7.5 20l3.15-6.3z"/></svg>
